FINK
CUT[ACH WEM EIN RECHTES GEDENKEN BLUEHT]
REG[Europa, Mitteleuropa, Deutschland]
KEY[F1126  16  G 6/8]
MEL[  5_6_5_1__-71  3__2_1__.
    4_3_2_1__1_  5___.
    5_4#_5_6__3_  5__4_2__.
    5_-7_1_3__2_  1___0_
    5_  5_4_3_2_3_4_  4_3_2_1__
    1_  3_2_1_-7_-6_-7_  1__.^__0_
    5_4#_5_6__3_  5__4_2__
    2_  5_-7_1_3__2_  1___. //] >>
FCT[Moral - Lied, Treue]
